X:35
T: Der Maedchenmoerder (Halewijn - Ulinger)
N: Q0041Q
O: Mitteleuropa, Schweiz
R: Ballade, Verfuehrung, Mord, Mordversuch bzw. Rache
M: 6/8
L: 1/8
K: G
G | B2GGBd | A2FD2
F | A2FDFA | B2GG2
D | GFEDCB, | D2cB2
A | GFEDCB, | D2FG2

@@@ Tune index: 771
